X: 627
T: Guanggunr kuqi
L: 1/8
M: 2/4
K: G
e g e d [I:setbarnb 1]| 
B B B d | 
e g e d | 
B2g2 | 
e2d2 | 
BA2G | 
A4 | 
d3B | 
e g e d | 
d A d B | 
A G E D | 
G2A d | 
B A G E | 
ED2B, | 
D4 |]

@@@ Tune index: 9501
